assets/icons/qvision/electric_moped.svg

<svg xmlns="http://www.w3.org/2000/svg" enable-background="new 0 0 24 24" height="24" viewBox="0 0 24 24" width="24"><g><rect fill="none" height="24" width="24"/></g><g><g><path d="M19,5c0-1.1-0.9-2-2-2h-3v2h3v2.65L13.52,12H10V7H6c-2.21,0-4,1.79-4,4v3h2c0,1.66,1.34,3,3,3s3-1.34,3-3h4.48L19,8.35V5z M7,15c-0.55,0-1-0.45-1-1h2C8,14.55,7.55,15,7,15z"/><rect height="2" width="5" x="5" y="4"/><path d="M19,11c-1.66,0-3,1.34-3,3s1.34,3,3,3s3-1.34,3-3S20.66,11,19,11z M19,15c-0.55,0-1-0.45-1-1s0.45-1,1-1s1,0.45,1,1 S19.55,15,19,15z"/></g><polygon points="7,20 11,20 11,18 17,21 13,21 13,23"/></g></svg>

<svg width="24" height="24" viewBox="0 0 24 24" fill="none" xmlns="http://www.w3.org/2000/svg">
<g clip-path="url(#clip0_147_5264)">
<path d="M19 5C19 3.9 18.1 3 17 3H14V5H17V7.65L13.52 12H10V7H6C3.79 7 2 8.79 2 11V14H4C4 15.66 5.34 17 7 17C8.66 17 10 15.66 10 14H14.48L19 8.35V5ZM7 15C6.45 15 6 14.55 6 14H8C8 14.55 7.55 15 7 15Z" fill="#323232"/>
<path d="M10 4H5V6H10V4Z" fill="#323232"/>
<path d="M19 11C17.34 11 16 12.34 16 14C16 15.66 17.34 17 19 17C20.66 17 22 15.66 22 14C22 12.34 20.66 11 19 11ZM19 15C18.45 15 18 14.55 18 14C18 13.45 18.45 13 19 13C19.55 13 20 13.45 20 14C20 14.55 19.55 15 19 15Z" fill="#323232"/>
<path d="M7 20H11V18L17 21H13V23L7 20Z" fill="#323232"/>
</g>
<defs>
<clipPath id="clip0_147_5264">
<rect width="24" height="24" fill="white"/>
</clipPath>
</defs>
</svg>
